symbolic/22x22/apps/litesoundsloc.svg

<svg xmlns="http://www.w3.org/2000/svg" width="22" height="22" version="1">
 <path style="opacity:0.2" d="M 11,1.4993985 A 8,8 0 0 0 3,9.499399 v 3 h 2 v -3 a 6,6 0 0 1 6,-6.0000005 6,6 0 0 1 6,6.0000005 v 3 h 2 v -3 A 8,8 0 0 0 11,1.4993985 Z"/>
 <path style="opacity:0.2" d="M 5.477539,8.4995 A 0.50734835,0.55772625 0 0 0 5.3466795,8.522935 L 1.3623047,9.836414 A 0.50734835,0.55772625 0 0 0 1,10.370594 v 5.256836 a 0.50734835,0.55772625 0 0 0 0.3623047,0.534179 l 3.9843748,1.314453 A 0.50734835,0.55772625 0 0 0 6,16.941883 V 9.056141 A 0.50734835,0.55772625 0 0 0 5.477539,8.4995 Z m 11.044922,0 A 0.50734835,0.55772625 0 0 0 16,9.056141 v 7.885742 a 0.50734835,0.55772625 0 0 0 0.65332,0.534179 l 3.984375,-1.314453 A 0.50734835,0.55772625 0 0 0 21,15.62743 V 10.370594 A 0.50734835,0.55772625 0 0 0 20.637695,9.836414 L 16.65332,8.5229375 A 0.50734835,0.55772625 0 0 0 16.522461,8.4995 Z"/>
 <path style="fill:#0d55cf" d="m 11,0.9995 a 8,8 0 0 0 -8,8 v 3 h 2 v -3 a 6,6 0 0 1 6,-6 6,6 0 0 1 6,6 v 3 h 2 v -3 a 8,8 0 0 0 -8,-8 z"/>
 <path style="fill:#1697fe" d="M 5.477539,7.9995 A 0.50734835,0.55772625 0 0 0 5.3466795,8.022935 L 1.3623047,9.336414 A 0.50734835,0.55772625 0 0 0 1,9.870594 v 5.256836 a 0.50734835,0.55772625 0 0 0 0.3623047,0.534179 l 3.9843748,1.314453 A 0.50734835,0.55772625 0 0 0 6,16.441883 V 8.5561405 A 0.50734835,0.55772625 0 0 0 5.477539,7.9995 Z m 11.044922,0 A 0.50734835,0.55772625 0 0 0 16,8.5561405 v 7.8857425 a 0.50734835,0.55772625 0 0 0 0.65332,0.534179 l 3.984375,-1.314453 A 0.50734835,0.55772625 0 0 0 21,15.12743 V 9.870594 A 0.50734835,0.55772625 0 0 0 20.637695,9.336414 L 16.65332,8.0229375 A 0.50734835,0.55772625 0 0 0 16.522461,7.9995 Z"/>
 <path style="opacity:0.2" d="m 12.374024,3.9827969 -3,11.8994141 L 7.3427735,10.23768 4.5,14.499399 4.48047,14.575571 6.6572275,12.762094 9.625978,21.016 l 3,-11.899414 1.977539,5.495117 2.510742,-3.255859 v 0 l -1.717774,1.030273 z"/>
 <path style="fill:#ef5350" d="m 12.374024,3.4828985 -3,11.8994135 L 7.3427735,9.737781 4.5,13.9995 4.48047,14.07567 6.6572275,12.262193 9.625978,20.5161 l 3,-11.8994145 1.977539,5.4951175 2.510742,-3.25586 v 0 l -1.717774,1.030274 z"/>
 <path style="opacity:0.1;fill:#ffffff" d="m 11,0.9995 a 8,8 0 0 0 -8,8 v 0.5 a 8,8 0 0 1 8,-8 8,8 0 0 1 8,8 v -0.5 a 8,8 0 0 0 -8,-8 z"/>
 <path style="opacity:0.2;fill:#ffffff" d="M 5.477539,7.9995 A 0.50734835,0.55772625 0 0 0 5.3466795,8.022935 L 1.3623047,9.336414 A 0.50734835,0.55772625 0 0 0 1,9.870594 v 0.5 A 0.50734835,0.55772625 0 0 1 1.3623047,9.836414 L 5.3466795,8.5229375 A 0.50734835,0.55772625 0 0 1 5.477539,8.4995 0.50734835,0.55772625 0 0 1 6,9.056141 V 8.5561405 A 0.50734835,0.55772625 0 0 0 5.477539,7.9995 Z m 11.044922,0 A 0.50734835,0.55772625 0 0 0 16,8.5561405 V 9.056141 A 0.50734835,0.55772625 0 0 1 16.522461,8.4995 0.50734835,0.55772625 0 0 1 16.65332,8.522935 l 3.984375,1.313476 A 0.50734835,0.55772625 0 0 1 21,10.370594 v -0.5 A 0.50734835,0.55772625 0 0 0 20.637695,9.336414 L 16.65332,8.0229375 A 0.50734835,0.55772625 0 0 0 16.522461,7.9995 Z"/>
 <path style="opacity:0.2;fill:#ffffff" d="m 12.374024,3.4828985 -3,11.8994135 L 7.3427735,9.737781 4.5,13.9995 4.48047,14.07567 5.161134,13.509264 7.3427745,10.237779 9.374025,15.88231 l 3,-11.8994136 3.02246,8.4033206 1,-0.59961 0.717774,-0.930664 -1.717774,1.030274 z"/>
</svg>

<svg xmlns="http://www.w3.org/2000/svg" width="22" height="22" version="1"><path style="opacity:.2" d="M11 1.5a8 8 0 0 0-8 8v3h2v-3a6 6 0 0 1 6-6 6 6 0 0 1 6 6v3h2v-3a8 8 0 0 0-8-8z"/><path style="opacity:.2" d="M5.478 8.5a.507.558 0 0 0-.131.023L1.362 9.836a.507.558 0 0 0-.362.535v5.256a.507.558 0 0 0 .362.535l3.985 1.314A.507.558 0 0 0 6 16.942V9.056a.507.558 0 0 0-.522-.556zm11.044 0a.507.558 0 0 0-.522.556v7.886a.507.558 0 0 0 .653.534l3.985-1.314a.507.558 0 0 0 .362-.535v-5.256a.507.558 0 0 0-.362-.535l-3.985-1.313a.507.558 0 0 0-.13-.024z"/><path style="fill:#0d55cf" d="M11 1a8 8 0 0 0-8 8v3h2V9a6 6 0 0 1 6-6 6 6 0 0 1 6 6v3h2V9a8 8 0 0 0-8-8z"/><path style="fill:#1697fe" d="M5.478 8a.507.558 0 0 0-.131.023L1.362 9.336A.507.558 0 0 0 1 9.871v5.256a.507.558 0 0 0 .362.535l3.985 1.314A.507.558 0 0 0 6 16.442V8.556A.507.558 0 0 0 5.478 8zm11.044 0a.507.558 0 0 0-.522.556v7.886a.507.558 0 0 0 .653.534l3.985-1.314a.507.558 0 0 0 .362-.535V9.871a.507.558 0 0 0-.362-.535l-3.985-1.313a.507.558 0 0 0-.13-.023z"/><path style="opacity:.2" d="m12.374 3.983-3 11.9-2.031-5.645L4.5 14.499l-.02.077 2.177-1.814 2.969 8.254 3-11.9 1.978 5.496 2.51-3.256-1.718 1.03z"/><path style="fill:#ef5350" d="m12.374 3.483-3 11.9-2.031-5.645L4.5 13.999l-.02.077 2.177-1.814 2.969 8.254 3-11.9 1.978 5.496 2.51-3.256-1.718 1.03z"/><path style="opacity:.1;fill:#fff" d="M11 1a8 8 0 0 0-8 8v.5a8 8 0 0 1 8-8 8 8 0 0 1 8 8V9a8 8 0 0 0-8-8z"/><path style="opacity:.2;fill:#fff" d="M5.478 8a.507.558 0 0 0-.131.023L1.362 9.336A.507.558 0 0 0 1 9.871v.5a.507.558 0 0 1 .362-.535l3.985-1.313a.507.558 0 0 1 .13-.024.507.558 0 0 1 .523.557v-.5A.507.558 0 0 0 5.478 8zm11.044 0a.507.558 0 0 0-.522.556v.5a.507.558 0 0 1 .522-.556.507.558 0 0 1 .131.023l3.985 1.313a.507.558 0 0 1 .362.535v-.5a.507.558 0 0 0-.362-.535l-3.985-1.313a.507.558 0 0 0-.13-.023zM12.374 3.483l-3 11.9-2.031-5.645L4.5 13.999l-.02.077.681-.567 2.182-3.271 2.031 5.644 3-11.9 3.022 8.404 1-.6.718-.93-1.718 1.03z"/></svg>
